X:1
T:Title
T:キセキノハナ
T:Lyrica arr. by @SaltyShu 
C:Composer
%%score 1 2
L:1/8
M:3/4
K:D
V:1 treble nm="Flute" snm="Fl."
V:2 treble nm="Harp" snm="Hrp."
V:1
 z6 |[Q:1/4=72] FA | B3 d cA | FA F2 FA | B3 d cA | f4 ed | e3 f dc | d3 e cB | B6 | z6 | z6 | %11
w: |||||||||||
w: |||||||||||
w: |||||||||||
 z4 A,F |:S E4 A,F | E4 A,F | E2 F2 z D/A,/ | A,4 A,F | E4 A,F | E4 FA | B2 c3 A/F/ | F4 AE/F/ | %20
w: ひ ろ|い ゆ き|の じゅ う|た ん か *|ら り ん|と の び|る し ん|め の よ う|に く ら *|
w: |い わ か|れ く り|か え し *|て や っ|と き み|に で あ|え た ん *|だ な に *|
w: |い き お|く た ど|り な が *|ら い つ|も な に|か さ が|し て い *|て い ま *|
 E3 A, AF | E4 AF | E3 F AB | F4 AF | E4 AF | E4 AF | ED B,2 A,2 |1 B,4 A,F :|2,3"^3:40" B,6- || %29
w: く つ め た|い ぼ く|の こ こ ろ|に き み|は き み|は ひ か|り を く れ|た で あ|に|
w: も し ら ず|に ほ ほ|え ん だ き|み ぼ く|は ぼ く|は ち か|う よ と わ||と|
w: は わ か る|よ す べ|て の こ と|は き み|に き み|に で あ|う た め だ|||
 B,4 FA | B3 d cA | FA F2 FA | B3 d cA | B4 AF | E3 F AB | F4 AF | D3 F ED!dacoda! | F4 FA | %38
w: * か な|し み が ふ|た り を つ つ|み こ ん で|も に ぎ|り し め た|て は な|さ な い か|ら あ し|
w: * ふ ゆ|の お わ り|つ げ る さ く|ら の よ う|に な が|い た び ぢ|に さ い|た き せ き||
w: |||||||||
 B3 d cA | FA/F/ F2 FA | A/B/- B2 d cA | f4 ed | e3 f dc | d3 e cB | B/c/B- B4- | B6 | %46
w: た も ら い|ね ん * も じゅ う|ね * * ん さ き|も ずっ *|と と な り|に い る か|ら * * *||
w: ||||||||
w: ||||||||
 z4 A,F!D.S.! :|O"^4:03" F/E/F- F4 | F4 ||[K:Eb] GB | Bc- ce dB | GB G2 GB | Bc- ce dB | c4 BG | %54
w: と お|よ * * *||い つ|も * * い つ の|ひ に も か が|や * * き な が|ら ぼ く|
w: ||||||||
w: ||||||||
 F3 G Bc | G4 BG | E3 G FE | G/F/G- G2 GB | c3 e dB | GB G2 GB | c3 e dB | g6- | !fermata!g2 z4 | %63
w: の こ こ ろ|を て ら|し て お く|れ * * * あ し|た も ら い|ね ん も ひゃ く|ね ん さ き|も||
w: |||||||||
w: |||||||||
 z6 | z4 fe | f3 g ed | e2 z f dc |[Q:1/4=66] c/d/c- c4- |[Q:1/4=60] c6 | z6 |[Q:1/4=72] z6 |] %71
w: |き み|を み つ め|て い る か|ら * * *||||
w: ||||||||
w: ||||||||
V:2
 z6 | D2 | G,D AB !arpeggio![FAc]2 | dF cd !arpeggio![Ace]2 | G,D AB !arpeggio![FAc]2 | %5
 dF cd !arpeggio![Ace]2 | G,D AB e2 | F,B, B z ^A z | B,F, B,E FB | ^dF Bd fb | %10
 !arpeggio![F,FBfb]6 | z6 |: !arpeggio![D,F,B,]6 | !arpeggio![A,CE]6 | !arpeggio![A,B,DF]6 | %15
 A,d c4 | !arpeggio![G,B,D]2 e4 | !arpeggio![A,CE]2 e4 | F,A, CD EF | BA dB- B2 | %20
 E2 !arpeggio![FBe]4 | C2 !arpeggio![Fce]4 | D2 CD EF | FE AB F2 | E2 !arpeggio![FBe]4 | %25
 C2 !arpeggio![Fce]4 | D2 D2 C2 |1 ^DF, B,D =D2 :|2,3 ^DF, B,D FB || !arpeggio![EBf]4 F,2 | %30
 G,D, B,D Fc | dc B2 A2 | !arpeggio![DFB]G, A,B, cA, | BA df ba | eG, B,D EF | F,B, DE AE | %36
 GF GB _B=c | AC F4 | G,D G2 !arpeggio![A,CE]2 | B,D F2 !arpeggio![F,A,F]2 | %40
 G,D G2 !arpeggio![A,CE]2 | B,F B2 ba | eB, E2 !arpeggio![GBe]2 | %43
 !arpeggio![FBc]4 !arpeggio![F^Ac]2 | B,E FE FE | !arpeggio![B,^DF]6 | z6 :| CF, ^G,C F^G | %48
 !arpeggio![Befa]4 ||[K:Eb] !arpeggio![dfb]2 | !arpeggio![Aec']2 e2 !arpeggio![EBd]2 | eC EG B2 | %52
 cA, B,C D2 | e2 fg bg | fE BG cB | BG FG E2 | F,G, A,C =B,_D | BD EG B2 | cE Ae Bc | cG eg b z | %60
 AE cB dB | eE, G,B, EG | cE Gc eg | !arpeggio![cfgc']6 | z6 | A,C EA e2 | G,D Gc =B2 | %67
 C,F, G,C FG | cC FG cf | !arpeggio![CFcfc']6- | [CFcfc']6 |] %71

